src/lib/packages/icons/src/assets/line/phone-hangup.svg

<svg width="24" height="24" viewBox="0 0 24 24" fill="none" xmlns="http://www.w3.org/2000/svg">
<path d="M20.145 16.75C19.97 16.75 19.7929 16.729 19.6189 16.685L16.8911 15.985C15.5311 15.636 14.6839 14.284 14.9619 12.908L15.0791 12.329C13.0911 11.729 10.955 11.729 8.949 12.327L9.06399 12.917C9.33299 14.291 8.48007 15.636 7.12307 15.979L4.3821 16.673C3.5131 16.892 2.58813 16.54 2.08913 15.8C1.30213 14.619 1.05405 13.1 1.40505 11.629C1.73805 10.236 2.58598 9.066 3.73098 8.42C5.02098 7.692 6.40201 7.13799 7.83401 6.77199C12.053 5.69499 16.467 6.285 20.261 8.433C21.411 9.084 22.2629 10.262 22.5969 11.665C22.9459 13.128 22.7011 14.634 21.9241 15.798C21.5271 16.4 20.853 16.75 20.145 16.75ZM12.0171 10.378C13.4401 10.378 14.8591 10.627 16.2061 11.125C16.5531 11.253 16.7549 11.615 16.6819 11.978L16.4331 13.206C16.3131 13.799 16.6779 14.382 17.2639 14.532L19.9881 15.231C20.2551 15.297 20.5229 15.197 20.6699 14.974C21.2229 14.147 21.3909 13.071 21.1389 12.012C20.9009 11.013 20.3119 10.185 19.5239 9.739C16.0679 7.783 12.0471 7.245 8.20705 8.226C6.90305 8.559 5.64499 9.06398 4.46999 9.72698C3.68699 10.169 3.10299 10.989 2.86599 11.978C2.61399 13.029 2.78996 14.145 3.33596 14.964C3.48496 15.183 3.75107 15.283 4.01907 15.218L6.75808 14.525C7.34308 14.377 7.71002 13.797 7.59402 13.205L7.35207 11.967C7.28207 11.605 7.48508 11.245 7.83108 11.118C9.18308 10.625 10.6021 10.378 12.0171 10.378Z" fill="currentColor"/>
</svg>

<svg xmlns="http://www.w3.org/2000/svg" width="24" height="24" fill="none"><path fill="currentColor" d="M20.145 16.75c-.175 0-.352-.021-.526-.065l-2.728-.7a2.637 2.637 0 0 1-1.93-3.077l.118-.579a10.68 10.68 0 0 0-6.13-.002l.115.59a2.636 2.636 0 0 1-1.94 3.062l-2.742.694A2.145 2.145 0 0 1 2.09 15.8c-.787-1.181-1.035-2.7-.684-4.171.333-1.393 1.181-2.563 2.326-3.209a16.833 16.833 0 0 1 4.103-1.648 16.718 16.718 0 0 1 12.427 1.661c1.15.651 2.002 1.829 2.336 3.232.349 1.463.104 2.969-.673 4.133a2.13 2.13 0 0 1-1.779.952Zm-8.128-6.372c1.423 0 2.842.249 4.19.747.346.128.548.49.475.853l-.249 1.228c-.12.593.245 1.176.83 1.326l2.725.699a.624.624 0 0 0 .682-.257c.553-.827.72-1.903.469-2.962-.238-.999-.827-1.827-1.615-2.273A15.226 15.226 0 0 0 8.207 8.226 15.325 15.325 0 0 0 4.47 9.727c-.783.442-1.367 1.262-1.604 2.251-.252 1.051-.076 2.167.47 2.986a.633.633 0 0 0 .683.254l2.74-.693c.584-.148.951-.728.835-1.32l-.242-1.238a.753.753 0 0 1 .48-.849 12.226 12.226 0 0 1 4.185-.74Z"/></svg>
